X: 7976
T: Congress, The
R: reel
M: 4/4
K: Dminor
|:Bc|dGGF GABc|dgge fdcf|dGGF GABG|AFFE FGAc|
dGGF GABc|dgge fdcB|~B3c dfdc|BGAF G2:|
|:Bc|dggf g2fg|dffc dfcf|dfcf dage|fdcA dggf|
g2fg dffc|dfcf ~B3c|dfdc BGAF|G2:|

